src/lib/packages/icons/src/assets/line/caret-down.svg

<svg width="24" height="24" viewBox="0 0 24 24" fill="none" xmlns="http://www.w3.org/2000/svg">
<path d="M18.5531 8.46191C18.2051 7.71391 17.476 7.25 16.649 7.25H7.35215C6.52515 7.25 5.7951 7.71391 5.4481 8.46191C5.1021 9.20591 5.21622 10.058 5.74522 10.686L10.1261 15.8789C10.5921 16.4319 11.2751 16.75 12.0011 16.75C12.7271 16.75 13.4101 16.4329 13.8761 15.8789L18.2572 10.686C18.7852 10.058 18.8981 9.20591 18.5531 8.46191ZM17.109 9.71899L12.7281 14.9121C12.3671 15.3411 11.6321 15.3411 11.2711 14.9121L6.89 9.71899C6.672 9.46099 6.75899 9.19599 6.80699 9.09399C6.84399 9.01299 6.99518 8.74902 7.35118 8.74902H16.6481C17.0041 8.74902 17.155 9.01299 17.192 9.09399C17.24 9.19599 17.327 9.46099 17.109 9.71899Z" fill="currentColor"/>
</svg>

<svg xmlns="http://www.w3.org/2000/svg" width="24" height="24" fill="none"><path fill="currentColor" d="M18.553 8.462A2.078 2.078 0 0 0 16.65 7.25H7.352c-.827 0-1.557.464-1.904 1.212a2.067 2.067 0 0 0 .297 2.224l4.381 5.193a2.446 2.446 0 0 0 1.875.871c.726 0 1.41-.317 1.875-.871l4.381-5.193a2.07 2.07 0 0 0 .296-2.224ZM17.11 9.719l-4.38 5.193c-.362.43-1.097.43-1.458 0L6.89 9.72a.567.567 0 0 1-.083-.625.59.59 0 0 1 .544-.345h9.297a.59.59 0 0 1 .544.345.567.567 0 0 1-.083.625Z"/></svg>
